src/assets/linkedin-logo.svg

<?xml version="1.0" encoding="UTF-8"?>
<svg class="" width="512px" height="512px" enable-background="new 0 0 430.117 430.117" version="1.1" viewBox="0 0 430.12 430.12" xml:space="preserve" xmlns="http://www.w3.org/2000/svg">
	<path class="active-path" d="m430.12 261.54v159.02h-92.188v-148.37c0-37.271-13.334-62.707-46.703-62.707-25.473 0-40.632 17.142-47.301 33.724-2.432 5.928-3.058 14.179-3.058 22.477v154.87h-92.219s1.242-251.28 0-277.32h92.21v39.309c-0.187 0.294-0.43 0.611-0.606 0.896h0.606v-0.896c12.251-18.869 34.13-45.824 83.102-45.824 60.673-1e-3 106.16 39.636 106.16 124.82zm-377.93-251.98c-31.548 0-52.183 20.693-52.183 47.905 0 26.619 20.038 47.94 50.959 47.94h0.616c32.159 0 52.159-21.317 52.159-47.94-0.606-27.212-20-47.905-51.551-47.905zm-46.706 411h92.184v-277.32h-92.184v277.32z" fill="#FFFFFFCC" data-old_color="#000000" data-original="#000000"/>
 </svg>

<?xml version="1.0"?>
<svg xmlns="http://www.w3.org/2000/svg" xmlns:xlink="http://www.w3.org/1999/xlink" version="1.1" id="Capa_1" x="0px" y="0px" width="512px" height="512px" viewBox="0 0 430.117 430.117" style="enable-background:new 0 0 430.117 430.117;" xml:space="preserve" class=""><g><g>
	<path id="LinkedIn" d="M430.117,261.543V420.56h-92.188V272.193c0-37.271-13.334-62.707-46.703-62.707   c-25.473,0-40.632,17.142-47.301,33.724c-2.432,5.928-3.058,14.179-3.058,22.477V420.56h-92.219c0,0,1.242-251.285,0-277.32h92.21   v39.309c-0.187,0.294-0.43,0.611-0.606,0.896h0.606v-0.896c12.251-18.869,34.13-45.824,83.102-45.824   C384.633,136.724,430.117,176.361,430.117,261.543z M52.183,9.558C20.635,9.558,0,30.251,0,57.463   c0,26.619,20.038,47.94,50.959,47.94h0.616c32.159,0,52.159-21.317,52.159-47.94C103.128,30.251,83.734,9.558,52.183,9.558z    M5.477,420.56h92.184v-277.32H5.477V420.56z" data-original="#000000" class="active-path" data-old_color="#000000" fill="#FFFFFFCC"/>
</g></g> </svg>
